X:1
T: Miss Elder
C:Robert Petrie
R:Reel
Q: 232
K:Em
M:4/4
L:1/8
|:B|E1/2E1/2E BE GE BF|GB EG FD AF|E1/2E1/2E BE GB e^c|dA BG FD AF|
E1/2E1/2E BE GE BF|GB EG FD AF|E1/2E1/2E BE GA B^c|dA BG FD Af|
ef ge bg fe|de fg af df|ef ge bg fe|db af ge eB|
ef ge bg fe|de fg af dg|bg af ge fd|eB cA GE E:|
